front/src/Assets/image/landing/ipostX.svg

<svg width="107" height="26" viewBox="0 0 107 26" fill="none" xmlns="http://www.w3.org/2000/svg">
<path d="M0.48 0.8V4.64H6.24V0.8H0.48ZM0.48 5.6V20H6.24V5.6H0.48ZM18.9186 5.36C16.6866 5.36 14.4786 6.032 12.9666 7.568V5.6H7.20656V26H12.9666V18.032C14.4786 19.568 16.6866 20.24 18.9186 20.24C22.6386 20.24 26.7906 18.608 26.7906 12.8C26.7906 6.992 22.6386 5.36 18.9186 5.36ZM16.9986 15.44C14.4306 15.44 12.9666 14.912 12.9666 12.8C12.9666 10.688 14.4306 10.16 16.9986 10.16C19.5666 10.16 21.0306 10.688 21.0306 12.8C21.0306 14.912 19.5666 15.44 16.9986 15.44ZM37.0554 20.24C43.1754 20.24 46.8474 18.128 46.8474 12.8C46.8474 7.472 43.1754 5.36 37.0554 5.36C30.9354 5.36 27.2634 7.472 27.2634 12.8C27.2634 18.128 30.9354 20.24 37.0554 20.24ZM37.0554 15.44C34.4874 15.44 33.0234 14.912 33.0234 12.8C33.0234 10.688 34.4874 10.16 37.0554 10.16C39.6234 10.16 41.0874 10.688 41.0874 12.8C41.0874 14.912 39.6234 15.44 37.0554 15.44ZM47.0916 15.032C47.0916 19.544 51.8916 20.24 57.3396 20.24C62.7876 20.24 66.6276 19.544 66.6276 15.152C66.6276 11.384 63.0036 11.048 57.3396 10.76C53.6916 10.568 53.0916 10.592 53.0916 9.992C53.0916 9.44 53.9316 9.44 56.8596 9.44C59.4276 9.44 60.3876 9.44 60.3876 10.208H66.1476C66.1476 6.056 62.4276 5.36 57.0996 5.36C51.7716 5.36 47.3316 6.056 47.3316 10.16C47.3316 13.832 50.2356 14.336 56.8596 14.6C60.3156 14.744 60.8676 14.672 60.8676 15.392C60.8676 16.016 60.3156 16.16 57.0996 16.16C53.6196 16.16 52.8516 15.848 52.8516 15.032H47.0916ZM81.1824 10.4V5.6H75.3024V1.76L69.5424 3.2V5.6H66.6384V10.4H69.5424V15.752C69.5424 18.872 71.7504 20.24 76.2144 20.24C78.1104 20.24 79.8144 20.12 81.1824 19.88V15.2C79.5264 15.44 78.8064 15.44 77.5104 15.44C75.8304 15.44 75.3024 14.744 75.3024 13.376V10.4H81.1824ZM81.6619 20H89.8219L94.0459 15.2L98.2699 20H106.43L98.4859 11.6L106.43 3.2H98.2699L94.0459 8L89.8219 3.2H81.6619L89.6059 11.6L81.6619 20Z" fill="white"/>
</svg>

<svg xmlns="http://www.w3.org/2000/svg" fill="none" viewBox="0 0 107 26">
  <path fill="#fff" d="M.48.8v3.84h5.76V.8H.48zm0 4.8V20h5.76V5.6H.48zm18.439-.24c-2.232 0-4.44.672-5.952 2.208V5.6h-5.76V26h5.76v-7.968c1.512 1.536 3.72 2.208 5.952 2.208 3.72 0 7.872-1.632 7.872-7.44 0-5.808-4.152-7.44-7.872-7.44zm-1.92 10.08c-2.568 0-4.032-.528-4.032-2.64s1.464-2.64 4.032-2.64 4.032.528 4.032 2.64-1.464 2.64-4.032 2.64zm20.056 4.8c6.12 0 9.792-2.112 9.792-7.44s-3.672-7.44-9.792-7.44c-6.12 0-9.792 2.112-9.792 7.44s3.672 7.44 9.792 7.44zm0-4.8c-2.568 0-4.032-.528-4.032-2.64s1.464-2.64 4.032-2.64 4.032.528 4.032 2.64-1.464 2.64-4.032 2.64zm10.037-.408c0 4.512 4.8 5.208 10.248 5.208 5.448 0 9.288-.696 9.288-5.088 0-3.768-3.624-4.104-9.288-4.392-3.648-.192-4.248-.168-4.248-.768 0-.552.84-.552 3.768-.552 2.568 0 3.528 0 3.528.768h5.76c0-4.152-3.72-4.848-9.048-4.848-5.328 0-9.768.696-9.768 4.8 0 3.672 2.904 4.176 9.528 4.44 3.456.144 4.008.072 4.008.792 0 .624-.552.768-3.768.768-3.48 0-4.248-.312-4.248-1.128h-5.76zm34.09-4.632V5.6h-5.88V1.76l-5.76 1.44v2.4h-2.904v4.8h2.904v5.352c0 3.12 2.208 4.488 6.672 4.488 1.896 0 3.6-.12 4.968-.36V15.2c-1.656.24-2.376.24-3.672.24-1.68 0-2.208-.696-2.208-2.064V10.4h5.88zm.48 9.6h8.16l4.224-4.8L98.27 20h8.16l-7.944-8.4 7.944-8.4h-8.16L94.046 8l-4.224-4.8h-8.16l7.944 8.4-7.944 8.4z"/>
</svg>
